X:1
T:Wheels of the World
D:Houseband
R:double jig
Z:Lesl Harker <lmh:RCONS.COM> irtrad-l 2001-12-2
M:6/8
L:1/8
K:D
DED|:CA,A, EA,A,|DEF GFE|FGA BGE|E{A}ED CB,A,|
CA,A, EA,A,|DEF GFE|FGA BGE|EDC D2D:|
|DFA dAF|AFD FGA|GGB BGE|E~ED CB,A,|
DFA dAF|AFD FGA|GGB BGE|EDC D2A||
DFA dAF|AFD FGA|GGB BGE|E~ED CB,A,|
DCD EDE|FEF GFG|FGA BGE|EDC D2{E}D||
